X:98
T:Ich was ein chint so wolgetan
C:Carmina burana n°185
R:Carmina
L:1/4
K:C
A/ |AGFE | GGA2 | AGFE |G2A2 |
AGFE | G2A2 | AGFE | G2A2 ||
A4 | G2G2 | A4 | |:
DD/D/ CE |
GG(F>G) | AGFE | DCD2 :|





